X:1
T:Penfield (Mason), LM
T:Penfield (Mason), LM
T:Lowell Mason, 1839
T:Public Domain Courtesy of the Cyber Hymnal™
C:Lowell Mason, 1839
Z:Public Domain
Z:Courtesy of the Cyber Hymnal™
%%score ( 1 2 ) ( 3 4 )
L:1/8
Q:1/4=120
M:3/4
K:C
V:1 treble 
V:2 treble 
V:3 bass 
V:4 bass 
V:1
 [CA]2 [EA]2 [CA]2 | ([CA]2 [B,^G]2) [EA]2 x | ([DB]2 [CA]2) [C^G]2 | [CA]6 | [EG]2 G2 [EG]2 | %5
 [DA]4 [CE]2 | ([DF]2 [CE]2) [B,D]2 | [CE]6 | [CE]2 E2 [EA]2 | (A2 ^G2) [EA]2 | [Ed]4 [Ec]2 | %11
 (c2 B2) [EB]2 | (c2 B2) [EA]2 | (A2 ^G2) [EA]2 | ([FB]2 [EA]2) ^G2 | [CA]6 |] %16
V:2
 x6 | x7 | x6 | x6 | x2 G2 x2 | x6 | x6 | x6 | x2 E2 x2 | E4 x2 | x6 | E4 x2 | E4 x2 | E4 x2 | %14
 x4 (ED) | x6 |] %16
V:3
 [A,,E,]2 [C,E,]2 [A,,E,]2 | E,4 D, [C,E,]2 | [D,F,]2 E,2 E,2 | [A,,E,]6 | [C,C]2 [E,C]2 [C,C]2 | %5
 [G,B,]4 A,2 | ([D,A,]2 G,2) [G,,G,]2 | [C,G,]6 | [A,,A,]2 [C,A,]2 [A,,C]2 | (C2 z [C,A,]2) x | %10
 [B,,^G,]4 A,2 | (A,2 ^G,2) [E,G,]2 | ([A,,A,]2 [B,,D]2) C2 | (C2 z D,) [C,E]2 | %14
 [D,D]2 [E,C]2 [E,B,]2 | [A,,A,]6 |] %16
V:4
 x6 | E,3 x4 | x2 E,2 E,2 | x6 | x6 | x4 A,2 | x2 G,2 x2 | x6 | x6 | E,3 (B,2 D,) | x4 (C,D,) | %11
 E,4 x2 | x4 (C,D,) | E,3 B,2 x | x6 | x6 |] %16

